X:1
T:FAREWELL, MY JOY
T:Charles Villiers Stanford (1852-1924)
T:Mary E Coleridge (1861-1907)
T:FAREWELL, MY JOY
T:Copyright © CPDL
T:(Op. 119. No 2)
T:Copyright © CPDL
T:Copyright © CPDL
T:Copyright © CPDL
T:Copyright © CPDL
T:Copyright © CPDL
T:Copyright © CPDL
C:Charles Villiers Stanford (1852-1924)
Z:Mary E Coleridge (1861-1907)
Z:Copyright © CPDL
%%score [ 1 2 ( 3 4 ) 5 ]
L:1/8
Q:1/4=100
M:4/4
K:Eb
V:1 treble nm="Soprano" snm="S."
V:2 treble nm="Alto" snm="A."
V:3 treble-8 transpose=-12 nm="Tenor" snm="T."
V:4 treble-8 transpose=-12 
V:5 bass nm="Bass" snm="B."
V:1
!f!"^Allegretto espressivo" e4 d2 e2 |!>(! !>!c8!>)! | z2!p! F2 G2 A2 | B3!<(! G!<)! c4 | %4
w: Fare- well, my|joy!|For o- ther|hearts the Spring.|
 z2!<(! B2 c2!<)! d2 | e6!p! G2 | F4 E2 z2 | z4!pp! G2 =A2 | =B6!p! d2 | c4 A4 | G4 z2 d2 | %11
w: For o- ther|eyes the|ro- ses;|but for|me The|i- ron|gate, the|
 (c2 =B2 c2) _BA | A2 G2 G4- | G2 z2!pp! B4 | A4 F4 | E4 G4 | F6 E2 | F4 D4 | !fermata!E8 || %19
w: sha- * * dow- y|Cy- press- tree.|_ The|so- lemn|dirge that|cloi- stered|voi- ces|sing.|
!mf! e4 d2 e2 |!>(! !>!c8!>)! | z2 z!p! F G2 A2 |!<(! B3 G!<)! c4 | z2 B2 c2 d2 | e2 d2 e2 G2 | %25
w: Fare- well, my|joy!|A- las, I|loved thee well!|For no light|mat- ter had I|
!>(! F6!>)! E2 | E8 |!pp! z4!<)!!<(! G4 |!>(! B2 E2!>)! E4- | E6!<(! E2 | e6 E2!<)! | e6 c2 | %32
w: let thee|go.|I|cher- ished thee|_ in|rain, and|wind, and|
!f! f8- | f4"^dim." e4 | c4 A4 | G4 B4 | F4 z2!p! E2 | F4{/F} D4 | !fermata!E8 || %39
w: snow.|_ I|bound thee|to my|breast with|many *|spell.|
"^Appassionato."!f!!<(! e4 d2!<)! e2 |!>(! g6!>)! f2 |!>(! !>!B8!>)! | z2 E2 F2 G2 | A6!<(! F2 | %44
w: Hail and fare-|well, my|joy!|If I might|give To|
 B4!<)! G4 | c6!f! c2 | f2!>(! e2 B2!>)! G2 | (F4 E4) | G4!<(! G2 =A2 | =B4!<)! B4 |!ff! g6 =e2 | %51
w: one sweet|friend the|rap- ture that I|miss, _|Read in her|eyes the|ec- sta-|
 c4 B4 |!>(! c8-!>)! | !fermata!c4!p! F4 | !>!e6 _d2 | _G4 B4 | E8- | E4 F4 | (_G4!<(! A4 | %59
w: sy of|bliss,|_ Tho'|death were|in my|own,|_ I|yet _|
 B4 =B4- | B4!<)! c4) | e8 |!f! !fermata!e8 |] %63
w: _ _||should|live.|
V:2
!f! G4 G2 G2 |!>(! (!>!G4!>)! F4) | z2!p! D2 D2 D2 | D3!<(! E!<)! E4 | z2!<(! G2 B2!<)! A2 | %5
w: Fare- well, my|joy! *|For o- ther|hearts the Spring,|For o- ther|
 G6!p! E2 | (E2 D2) E2 z2 | z4!pp! E2 E2 | D6!p! F2 | F4 E4 | D4 z2 F2 | F6 FE | F2 F2 E4- | %13
w: eyes the|ro- * ses;|but for|me The|i- ron|gate, the|sha- dow- y|Cy- press- tree,|
 E2 z2!pp! G4 | F4 D4 | C4 E4 | D6 C2 | C4 B,4 | !fermata!B,8 ||!mf! G4 G2 G2 | %20
w: _ The|so- lemn|dirge that|cloi- stered|voi- ces|sing.|Fare- well, my|
!>(! (!>!G4!>)! F4) | z2 z!p! D D2 D2 |!<(! D3 E!<)! E4 | z2 G2 B2 A2 | G2 A2 G2 E2 | %25
w: joy! *|A- las, I|loved thee well!|For no light|mat- ter had I|
!>(! (E4 D2)!>)! B,2 | B,8 | z4!pp!!<)!!<(! E4 |!>(! _D2 D2!>)! D4- | D2 F2!<(! A4- | A2 G2 (B4- | %31
w: let _ thee|go.|I|cher- ished thee|_ in rain|_ and wind,|
 B2!<)! A2 c2) A2 |!f! (c8 | =B4)"^dim." _B4 | E4 (F2 E2) | D4 (E2 _D2) | C4 z2!p! C2 | %37
w: _ _ _ and|snow.|_ I|bound thee *|to my _|breast with|
 C4{/C} B,4 | B,8 ||!f!!<(! G4 A2!<)! G2 |!>(! c6!>)! c2 |!>(! (!>!F4!>)! G4) | z2 E2 E2 E2 | %43
w: many *|spell|Hail and fare-|well, my|joy! _|If I might|
 E2 D2!<(! F4- | F2 E2!<)! (G4- | G2 F2 A2)!f! G2 | c2!>(! B2 G2!>)! E2 | (D4 C4) | z8 | %49
w: give To one|_ sweet friend|_ _ _ the|rap- ture that I|miss, _||
 z2!<(! A2 G2 F2 | F2!<)!!ff! =E2 (G2 c2- | c3) A G2 G2 |!>(!!>(! (G4!>)!!>)! F4- | %53
w: Read in her|eyes the ec- *|* sta- sy of|bliss, _|
 !fermata!F4)!p! F4 | !>!_G6 _F2 | E4 _D4 | _C8- | C4 E4 | (E4!<(! F4 | _G4 A4-!<)! | A8) | %61
w: _ Tho'|death were|in my|own,|_ I|yet _|_ _||
 (B4 A4) |!f! !fermata!G8 |] %63
w: should _|live.|
V:3
!f!!f! e4 e2 e2 |!>(! (!>!e4!>)! d4) | z2!p! c2 B2 A2 | G3!<(! B!<)! A4 | z2!<(! e2 g2!<)! f2 | %5
w: Fare- well, my|joy! *|For o- ther|hearts the Spring,|For o- ther|
 e6!p! B2 | A4 G2 z2 | z4!pp! G2 G2 | G6!p! =B2 | c4 F4 | F4 z2 =B2 | (c2 d2 c2) dc | =B2 B2 c4- | %13
w: eyes the|ro- ses;|but for|me The|i- ron|gate, the|sha- * * dow- y|Cy- press- tree,|
 c2 z2!pp! _d4 | c4 A4 | G4 B4 | B6 G2 | A4 F4 | !fermata!G8 ||!mf! e4 e2 e2 |!>(! (!>!e4!>)! d4) | %21
w: _ The|so- lemn|dirge that|cloi- stered|voi- ces|sing.|Fare- well, my|joy! *|
 z2 z!p! c B2 A2 |!<(! G3 B!<)! A4 | z2 e2 g2 f2 | e2 f2 e2 B2 |!>(! A6!>)! G2 | G8 | %27
w: A- las, I|loved thee well!|For no light|mat- ter had I|let thee|go.|
!pp! z4!<)!!<(! E4 |!>(! F2 [EB]2!>)! B4- | B2 c2!<(! e4- | e2 _d2 (f4- | f2!<)! e2 g2) f2 | %32
w: I|cher- ished thee|_ in rain|_ and wind,|_ _ _ and|
!f!!f! (e8 | d4)"^dim." e4 | e4 (d2 c2) | B4 G4 | A4 z2!p! G2 | A4{/A} F4 | !fermata!G8 || %39
w: snow.|_ I|bound thee *|to my|breast with|many *|spell.|
!f!!<(! (e4 f2)!<)! e2 |!>(! e6!>)! d2 |!>(! (!>!d4!>)! e4) | z2 B2 c2 B2 | A2 A2!<(! c4- | %44
w: Hail and fare-|well, my|joy! _|If I might|give To one|
 c2 B2!<)! (d4- | d2 c2 e2)!f!!f! e2 | d2!>(! e2 e2!>)! B2 | G8 | z2 e2!<(!!<(! d2 c2 | %49
w: _ sweet friend|_ _ _ the|rap- ture that I|miss,|Read in her|
 (=B2 f2) (e2!<)!!<)! d2) |!ff!!ff! c6 g2 | f4 c4 |!>(! [ce]8-!>)! | !fermata!e4!p! c4 | %54
w: eyes _ the *|ec- sta-|sy of|bliss'|_ Tho'|
 !>!B6 _G2 | _G4 _F4 | E8- | E4 _c4 |!<(! (_c8 | _d4 =d4- | d4!<)! e4) | e8 |!f! !fermata![Be]8 |] %63
w: death were|in my|own,|_ I|yet|_ _|||live.|
V:4
 x8 | x8 | x8 | x8 | x8 | x8 | x8 | x8 | x8 | x8 | x8 | x8 | x8 | x8 | x8 | x8 | x8 | x8 | x8 || %19
w: |||||||||||||||||||
 x8 | x8 | x8 | x8 | x8 | x8 | x8 | x8 | x8 | x8 | x8 | x8 | x8 | x8 | x8 | x8 | x8 | x8 | x8 | %38
w: |||||||||||||||||||
 x8 || x8 | x8 | x8 | x8 | x8 | x8 | x8 | x8 | x8 | x8 | x8 | x8 | x8 | x8 | c4 x4 | x8 | x8 | x8 | %57
w: |||||||||||||||||||
 x8 | x8 | x8 | x8 | (d4 c4) | x8 |] %63
w: ||||should *||
V:5
 C4 B,2 C2 |!>(! !>!A,8!>)! | z2!p! A,2 G,2 F,2 | G,3!<(! E,!<)! A,4 | z2!<(! G,2 A,2!<)! B,2 | %5
w: Fare- well, my|joy!|For o- ther|hearts the Spring,|For o- ther|
 C6!p! G,2 | B,,4 E,2 z2 | z4!pp! E,2 C,2 | G,6!p! G,,2 | A,,4 C,4 | =B,,4 z2 G,,2 | %11
w: eyes the|ro- ses;|but for|me The|i- ron|gate, the|
 (A,,2 G,,2 A,,2) _B,,C, | D,2 D,2 E,4- | E,2 z2!pp! E,4 | F,4 B,,4 | C,4 G,,4 | B,,6 C,2 | %17
w: sha- * * dow- y|Cy- press- tree,|_ The|so- lemn|dirge that|cloi- stered|
 F,,4 B,,4 | !fermata![E,,B,,]8 ||!mf! C4 B,2 C2 |!>(! !>!A,8!>)! | z2 z!p! A, G,2 F,2 | %22
w: voi- ces|sing.|Fare- well, my|joy!|A- las, I|
!<(! G,3 E,!<)! A,4 | z2 G,2 A,2 B,2 | C2 B,2 C2 G,2 |!>(! (B,4 B,,2)!>)! E,2 | E,8 | %27
w: loved thee well!|For no light|mat- ter had I|let _ thee|go.|
 z4!pp!!<)!!<(! C,4 |!>(! G,,2 G,,2!>)! G,,4- | G,,2 A,,2!<(! C,4- | C,2 B,,2 (_D,4- | %31
w: I|cher- ished thee|_ in rain|_ and wind,|
 D,2!<)! C,2 E,2) F,2 | A,8- | A,4"^dim." G,4 | E,4 F,4 | (G,2 F,2) E,4 | F,4 z2!p! C,2 | %37
w: _ _ _ and|snow.|_ I|bound thee|to _ my|breast with|
 F,4{/F,} B,,4 | !fermata!E,8 ||!f!!<(! C4 B,2!<)! C2 |!>(! A,6!>)! A,2 |!>(! !>!G,8!>)! | %42
w: many *|spell.|Hail and fare-|well, my|joy!|
 z2 G,2 A,2 G,2 | F,2 F,2!<(! A,4- | A,2 G,2!<)! (B,4- | B,2 A,2 C2) B,2 | %46
w: If I might|give To one|_ sweet friend|_ _ _ the|
 A,2!>(! G,2 G,2!>)! G,,2 | C,8 | z2 G,2 F,2 E,2 | D,4 G,4 | [C,B,]6 [C,B,]2 | [D,F,]4 [=E,G,]4 | %52
w: rap- ture that I|miss,|Read in her|eyes the|ec- sta-|sy of|
 B,4 =A,4- | !fermata!A,4!p! =A,,4 | !>!B,,6 B,,2 | _C,4 _G,,4 | A,,8- | A,,4 A,4 |!<(! (_G,8- | %59
w: bliss, _|_ Tho'|death were|in my|own,|_ I|yet|
 G,4 F,4 | _F,4!<)! E,4) | [A,,E,]8 |!f! !fermata!E,8 |] %63
w: _ _||should|live.|

